src/components/styles/images/gallery.svg

<?xml version="1.0" encoding="UTF-8"?>
<svg enable-background="new 0 0 480.003 480.003" version="1.1" viewBox="0 0 480.003 480.003" xml:space="preserve" xmlns="http://www.w3.org/2000/svg">
<path d="m424 248h48v-240h-368v104l320 136z" fill="#F2F2F2"/>
<path d="m136 112v-72h304v176h-24l-280-96v-8z" fill="#3FA9F5"/>
<path d="m376 104v24l-256 216h-112v-240h368z" fill="#E6E6E6"/>
<path d="m320 136h-280v176h72l208-176z" fill="#29ABE2"/>
<path d="m472 336l-344 136-88-232 344-128 88 224z" fill="#F2F2F2"/>
<circle cx="96.001" cy="192" r="24" fill="#F8CF26"/>
<path d="m80.001 264l64 168 288-112-64-168-288 112z" fill="#29ABE2"/>
<path d="m160.17 425.5l7.832-129.5 109.17 84.336-117 45.16z" fill="#8C6239"/>
<path d="m432 320l-10-25.832-102-54.168v32l-72-48-16.336 121.34 45.504 35 154.83-60.336z" fill="#754C24"/>
<path d="m472 0h-368c-4.418 0-8 3.582-8 8v88h-88c-4.418 0-8 3.582-8 8v240c0 4.418 3.582 8 8 8h64c0.609-0.05 1.211-0.171 1.792-0.36l46.728 123.2c1.568 4.131 6.188 6.208 10.319 4.639 0.027-0.01 0.054-0.021 0.081-0.031l344-136c4.111-1.618 6.132-6.263 4.514-10.374-3e-3 -9e-3 -7e-3 -0.017-0.01-0.026l-30.256-77.048h22.832c4.418 0 8-3.582 8-8v-240c0-4.418-3.581-8-8-8zm-456 336v-224h345.06l-43 16h-278.06c-4.418 0-8 3.582-8 8v176c0 4.418 3.582 8 8 8h21.792l6.064 16h-51.856zm416-128h-1.688l-38.864-98.928c-1.222-3.039-4.173-5.026-7.448-5.016v-0.056c0-4.418-3.582-8-8-8h-232v-48h288v160zm-352-16c0-8.837 7.163-16 16-16s16 7.163 16 16-7.163 16-16 16-16-7.163-16-16zm16-32c-17.624-0.046-31.95 14.203-31.996 31.828-0.027 10.211 4.834 19.817 13.076 25.844l-29.08 10.816v-84.488h227.06l-147.86 55.032c3.995-17.102-6.631-34.205-23.734-38.199-2.447-0.572-4.953-0.851-7.466-0.833zm-48 123.65l7.72 20.352h-7.72v-20.352zm84.6 177.95l-82.264-216.91 329.09-122.45 82.216 209.26-329.04 130.1zm331.4-221.6h-21.12l-6.288-16h3.408c4.418 0 8-3.582 8-8v-176c0-4.418-3.582-8-8-8h-304c-4.418 0-8 3.582-8 8v56h-16v-80h352v224z"/>
<path d="m375.48 149.15c-1.568-4.131-6.188-6.208-10.319-4.639-0.027 0.01-0.054 0.021-0.081 0.031l-288 112c-4.101 1.591-6.148 6.193-4.584 10.304l64 168c1.185 3.112 4.174 5.164 7.504 5.152 0.991 3e-3 1.974-0.181 2.896-0.544l288-112c4.101-1.591 6.148-6.193 4.584-10.304l-7.632-20c0.367-2.648-0.644-5.3-2.68-7.032l-53.688-140.97zm-285.18 119.42l273.09-106.18 44.048 115.6-83.648-45.04c-3.89-2.094-8.742-0.638-10.836 3.252-0.627 1.164-0.955 2.466-0.956 3.788v17.048l-59.56-39.704c-3.676-2.451-8.643-1.458-11.094 2.218-0.677 1.015-1.113 2.172-1.274 3.382l-14.32 107.38-52.872-40.664c-3.501-2.695-8.524-2.041-11.219 1.46-0.973 1.263-1.545 2.789-1.645 4.38l-7.792 124.72-3.616 1.4-58.304-153.05zm170.94 109.25l-92.6 36 6.4-102.32 86.2 66.32zm16.984-6.608c-0.378-0.577-0.832-1.099-1.352-1.552l-36.488-28.064 13.84-103.82 61.328 40.888c3.675 2.452 8.643 1.461 11.095-2.215 0.879-1.317 1.347-2.866 1.345-4.449v-18.608l88.144 47.464 5.552 14.568-143.46 55.792z"/>
</svg>

<?xml version="1.0" encoding="iso-8859-1"?>
<!-- Generator: Adobe Illustrator 19.0.0, SVG Export Plug-In . SVG Version: 6.00 Build 0)  -->
<svg version="1.1" id="Capa_1" xmlns="http://www.w3.org/2000/svg" xmlns:xlink="http://www.w3.org/1999/xlink" x="0px" y="0px"
	 viewBox="0 0 480.003 480.003" style="enable-background:new 0 0 480.003 480.003;" xml:space="preserve">
<path style="fill:#F2F2F2;" d="M424.001,248h48V8h-368v104L424.001,248z"/>
<path style="fill:#3FA9F5;" d="M136.001,112V40h304v176h-24l-280-96V112z"/>
<path style="fill:#E6E6E6;" d="M376.001,104v24l-256,216h-48h-64V104H376.001z"/>
<path style="fill:#29ABE2;" d="M320.001,136h-280v176h72L320.001,136z"/>
<path style="fill:#F2F2F2;" d="M472.001,336l-344,136l-88-232l344-128L472.001,336z"/>
<circle style="fill:#F8CF26;" cx="96.001" cy="192" r="24"/>
<path style="fill:#29ABE2;" d="M80.001,264l64,168l288-112l-64-168L80.001,264z"/>
<path style="fill:#8C6239;" d="M160.169,425.496L168.001,296l109.168,84.336L160.169,425.496z"/>
<path style="fill:#754C24;" d="M432.001,320l-10-25.832l-102-54.168v32l-72-48l-16.336,121.336l45.504,35L432.001,320z"/>
<path d="M472.001,0h-368c-4.418,0-8,3.582-8,8v88h-88c-4.418,0-8,3.582-8,8v240c0,4.418,3.582,8,8,8h64
	c0.609-0.05,1.211-0.171,1.792-0.36l46.728,123.2c1.568,4.131,6.188,6.208,10.319,4.639c0.027-0.01,0.054-0.021,0.081-0.031l344-136
	c4.111-1.618,6.132-6.263,4.514-10.374c-0.003-0.009-0.007-0.017-0.01-0.026L449.169,256h22.832c4.418,0,8-3.582,8-8V8
	C480.001,3.582,476.42,0,472.001,0L472.001,0z M16.001,336V112h345.064l-43,16H40.001c-4.418,0-8,3.582-8,8v176c0,4.418,3.582,8,8,8
	h21.792l6.064,16H16.001z M432.001,208h-1.688l-38.864-98.928c-1.222-3.039-4.173-5.026-7.448-5.016V104c0-4.418-3.582-8-8-8h-232
	V48h288V208z M80.001,192c0-8.837,7.163-16,16-16s16,7.163,16,16s-7.163,16-16,16S80.001,200.837,80.001,192z M96.001,160
	c-17.624-0.046-31.95,14.203-31.996,31.828c-0.027,10.211,4.834,19.817,13.076,25.844l-29.08,10.816V144h227.064l-147.864,55.032
	c3.995-17.102-6.631-34.205-23.734-38.199C101.02,160.261,98.514,159.982,96.001,160z M48.001,283.648L55.721,304h-7.72V283.648z
	 M132.601,461.6L50.337,244.688L379.425,122.24l82.216,209.256L132.601,461.6z M464.001,240h-21.12l-6.288-16h3.408
	c4.418,0,8-3.582,8-8V40c0-4.418-3.582-8-8-8h-304c-4.418,0-8,3.582-8,8v56h-16V16h352V240z"/>
<path d="M375.481,149.152c-1.568-4.131-6.188-6.208-10.319-4.639c-0.027,0.01-0.054,0.021-0.081,0.031l-288,112
	c-4.101,1.591-6.148,6.193-4.584,10.304l64,168c1.185,3.112,4.174,5.164,7.504,5.152c0.991,0.003,1.974-0.181,2.896-0.544l288-112
	c4.101-1.591,6.148-6.193,4.584-10.304l-7.632-20c0.367-2.648-0.644-5.3-2.68-7.032L375.481,149.152z M90.305,268.576L363.393,162.4
	L407.441,278l-83.648-45.04c-3.89-2.094-8.742-0.638-10.836,3.252c-0.627,1.164-0.955,2.466-0.956,3.788v17.048l-59.56-39.704
	c-3.676-2.451-8.643-1.458-11.094,2.218c-0.677,1.015-1.113,2.172-1.274,3.382l-14.32,107.384l-52.872-40.664
	c-3.501-2.695-8.524-2.041-11.219,1.46c-0.973,1.263-1.545,2.789-1.645,4.38l-7.792,124.72l-3.616,1.4L90.305,268.576z
	 M261.249,377.824l-92.6,36l6.4-102.32L261.249,377.824z M278.233,371.216c-0.378-0.577-0.832-1.099-1.352-1.552L240.393,341.6
	l13.84-103.824l61.328,40.888c3.675,2.452,8.643,1.461,11.095-2.215c0.879-1.317,1.347-2.866,1.345-4.449v-18.608l88.144,47.464
	l5.552,14.568L278.233,371.216z"/>
<g>
</g>
<g>
</g>
<g>
</g>
<g>
</g>
<g>
</g>
<g>
</g>
<g>
</g>
<g>
</g>
<g>
</g>
<g>
</g>
<g>
</g>
<g>
</g>
<g>
</g>
<g>
</g>
<g>
</g>
</svg>
